X:1
T:James Gibb editions
T:Psalm 21 (Becker) - Schütz
%%score [ ( 1 2 ) ( 3 4 ) ]
L:1/8
Q:1/4=107
M:3/4
K:Bb
V:1 treble nm="Soprano Alto"
V:2 treble 
V:3 bass nm="Tenor Bass"
V:4 bass 
V:1
"^Cornelius Becker\n(1561-1604)""^Psalm 21, SWV 117""^Heinrich Schütz\n(1585-1672)" d2 | B4 c2 | %2
w: ~Hoch|freu- et|
 d4 e2 | f6 | c4 f2 | e4 d2 | c2 c4 | B6- | B4 | F2 G4 x2 | A2 B4 x2 | c2 d6 | A4 d2 x2 | %13
w: sich der|Kö-|nig, Herr|Gott, in|dei- ner|Kraft,||er ist|von Her-|zen froh-|lich, daß|
 c4 B2 x2 | A2 A4 x2 | G6 x2 | G4 d2 | c4 B2 | c4 d2 | e6 | c4 c2 | B4 A2 | B4 c2 | d6 | B4 f2 | %25
w: du ihm|Hil- fe|schaffst,|* wil-|lig tust|ihm ge-|wäh-|ren all|sein Bitt|und Be-|geh-|ren, gibst|
 g4 f2 | e2 c4 | B6- | B4 |] %29
w: ihm seins|Her- zens|Wunsch.||
V:2
 F2 | F4 F2 | F4 B2 | A6 | A4 B2 | E4 F2 | G2 F4 | F6- | F4 | D2 D4 x2 | D2 D4 x2 | G2 ^F6 | %12
 ^F4 G2 x2 | C4 D2 x2 | E2 D4 x2 | D6- x2 | D4 D2 | F4 D2 | F4 F2 | G6 | F4 F2 | D4 D2 | D4 F2 | %23
 F6 | F4 B2 | B4 B2 | G2 F4 | F6- | F4 |] %29
V:3
 B,2 | D4 C2 | B,4 B,2 | C6 | F4 D2 | C4 B,2 | B,2 A,4 | B,6- | B,4 | B,2 B,4 x2 | A,2 G,4 x2 | %11
 G,2 A,6 | D4 B,2 x2 | A,4 G,2 x2 | G,2 ^F,4 x2 | G,6- x2 x2 | G,4 !courtesy!=F,2 | A,4 G,2 | %18
 A,4 B,2 | %19
"^2. Mit deines Segens Schätzen begnad'st du deinen Sohn\nund tust auf sein Haupt setzen von Gold ein schöne Kron,\ner bittet dich ums Leben, das willt du ihm auch geben\nimmer und ewiglich.\n\n4. Er setzet sein Vertrauen auf dich, du höchster Gott,\ndas wird ihn nicht gereuen, er bleibt fest in der Not.\nDie Feinde nicht bestehen, deiner Hand nicht entgehn\nalle, die hassen dich." B,6 | %20
 A,4 A,2 | G,4 ^F,2 | G,4 A,2 | B,6 | D4 D2 | E4 B,2 | B,2 A,4 | B,6- | B,4 |] %29
V:4
 B,2 | B,4 A,2 | B,4 G,2 | F,6 | F,4 B,,2 | C,4 D,2 | E,2 F,4 | (B,,6 | [A,,B,,]4) | B,2 G,4 x2 | %10
 ^F,2 G,4 x2 | E,2 D,6 | D,4 G,,2 x2 | A,,4 B,,2 x2 | C,2 D,4 x2 | G,,4- x2 x4 | G,,4 B,,2 | %17
 !courtesy!=F,4 G,2 | F,4 B,,2 | E,6 | F,4 F,2 | G,4 D,2 | G,4 F,2 | B,6 | B,4 B,2 | E,4 D,2 | %26
 E,2 F,4 | B,,6- | B,,4 |] %29

